images/Binance_labs-logo.svg

<svg width="237" height="61" viewBox="0 0 237 61" fill="none" xmlns="http://www.w3.org/2000/svg">
<path fill-rule="evenodd" clip-rule="evenodd" d="M74.3608 47.3673H164.432V44.6302H74.3608V47.3673ZM213.171 51.6401H208.378V47.1283H212.959C215.238 47.1283 216.344 47.9515 216.344 49.361C216.344 50.8656 215.145 51.6401 213.171 51.6401V51.6401ZM208.378 40.3154H212.536C214.393 40.3154 215.426 41.0898 215.426 42.4285C215.426 43.9575 214.182 44.6855 212.326 44.6855H208.378V40.3154ZM215.968 45.648C217.189 45.013 218.316 43.9797 218.316 41.9594C218.316 39.375 216.227 37.7531 212.912 37.7531H205.535V54.2024H213.147C216.813 54.2024 219.234 52.6269 219.234 49.6663C219.234 47.4116 217.893 46.3074 215.968 45.648V45.648ZM229.269 44.6612C226.12 43.9088 225.368 43.3446 225.368 42.0524C225.368 40.9482 226.354 40.0808 228.047 40.0808C229.552 40.0808 231.03 40.6672 232.51 41.7714L234.061 39.5874C232.393 38.2465 230.49 37.5185 228.094 37.5185C224.828 37.5185 222.478 39.4458 222.478 42.3135C222.478 45.367 224.452 46.4004 227.952 47.2456C231.008 47.9515 231.665 48.5843 231.665 49.7836C231.665 51.0537 230.536 51.8746 228.751 51.8746C226.706 51.8746 225.133 51.1002 223.56 49.7371L221.821 51.806C223.792 53.5674 226.166 54.437 228.68 54.437C232.134 54.437 234.555 52.6048 234.555 49.5026C234.555 46.7522 232.745 45.5086 229.269 44.6612V44.6612ZM191.011 47.6683L193.83 41.0898L196.675 47.6683H191.011ZM192.538 37.6358L185.302 54.2024H188.263L189.955 50.2306H197.731L199.399 54.2024H202.453L195.217 37.6358H192.538ZM174.163 37.7531H171.271V54.2024H182.808V51.5693H174.163V37.7531ZM179.943 22.0561L169.056 7.74865H164.343V30.9844H169.388V16.2145L180.642 30.9844H184.988V7.74865H179.943V22.0561ZM79.3394 21.39H85.2474C87.8694 21.39 89.0311 22.3526 89.0311 23.9147V23.9789C89.0311 25.707 87.6703 26.5036 85.4133 26.5036H79.3394V21.39ZM79.3394 12.2294H84.3844C86.5418 12.2294 87.7367 13.0924 87.7367 14.6191V14.6855C87.7367 16.4114 86.3095 17.1438 84.0525 17.1438H79.3394V12.2294ZM94.1093 24.6118V24.5454C94.1093 21.4254 92.452 19.8633 89.7613 18.8366C91.4208 17.905 92.8148 16.4468 92.8148 13.8248V13.7562C92.8148 10.1052 89.8941 7.74865 85.1478 7.74865H74.3608V30.9844H85.4133C90.6574 30.9844 94.1093 28.8602 94.1093 24.6118V24.6118ZM201.853 31.3827C206.334 31.3827 208.989 29.7895 211.379 27.2338L208.126 23.9479C206.301 25.6075 204.674 26.6696 202.019 26.6696C198.036 26.6696 195.281 23.3505 195.281 19.3654V19.3012C195.281 15.3161 198.102 12.0657 202.019 12.0657C204.342 12.0657 206.168 13.0592 207.96 14.6855L211.213 10.935C209.055 8.81075 206.433 7.35036 202.052 7.35036C194.916 7.35036 189.935 12.7604 189.935 19.3654V19.434C189.935 26.1053 195.016 31.3827 201.853 31.3827V31.3827ZM233.19 26.4372H220.575V21.5582H231.53V17.0089H220.575V12.2958H233.024V7.74865H215.497V30.9844H233.19V26.4372ZM148.241 13.7252L151.328 21.2595H145.154L148.241 13.7252ZM143.329 25.7734H153.156L155.28 30.9844H160.624L150.666 7.58269H145.951L135.994 30.9844H141.205L143.329 25.7734ZM99.7185 30.9822H104.83V7.74865H99.7185V30.9822ZM116.706 16.2145L127.959 30.9844H132.307V7.74865H127.262V22.0561L116.376 7.74865H111.661V30.9844H116.706V16.2145ZM47.2528 30.9844L54.0281 37.7597L60.8035 30.9844L54.0281 24.209L47.2528 30.9844ZM7.57439 24.209L0.80127 30.9844L7.57439 37.7597L14.3497 30.9844L7.57439 24.209ZM30.8013 14.5328L42.4158 26.1452L49.1889 19.3698L37.5766 7.7575L30.8013 0.984375L24.0281 7.7575L12.4136 19.3698L19.1889 26.1452L30.8013 14.5328ZM30.8013 47.4359L19.1889 35.8236L12.4136 42.5967L24.0281 54.2113L30.8013 60.9844L37.5766 54.2113L49.1889 42.5967L42.4158 35.8236L30.8013 47.4359ZM24.0281 30.9844L30.8013 37.7597L37.5766 30.9844L30.8013 24.209L24.0281 30.9844Z" fill="white"/>
</svg>

<svg xmlns="http://www.w3.org/2000/svg" width="237" height="61" fill="none"><path fill="#fff" fill-rule="evenodd" d="M74.36 47.367h90.072V44.63H74.361v2.737Zm138.811 4.273h-4.793v-4.512h4.581c2.279 0 3.385.824 3.385 2.233 0 1.505-1.199 2.28-3.173 2.28Zm-4.793-11.325h4.158c1.857 0 2.89.775 2.89 2.114 0 1.529-1.244 2.256-3.1 2.256h-3.948v-4.37Zm7.59 5.333c1.221-.635 2.348-1.668 2.348-3.689 0-2.584-2.089-4.206-5.404-4.206h-7.377v16.45h7.612c3.666 0 6.087-1.576 6.087-4.537 0-2.254-1.341-3.359-3.266-4.018Zm13.301-.987c-3.149-.752-3.901-1.316-3.901-2.609 0-1.104.986-1.971 2.679-1.971 1.505 0 2.983.586 4.463 1.69l1.551-2.184c-1.668-1.34-3.571-2.069-5.967-2.069-3.266 0-5.616 1.928-5.616 4.795 0 3.054 1.974 4.087 5.474 4.933 3.056.706 3.713 1.338 3.713 2.538 0 1.27-1.129 2.09-2.914 2.09-2.045 0-3.618-.774-5.191-2.137l-1.739 2.069c1.971 1.761 4.345 2.631 6.859 2.631 3.454 0 5.875-1.832 5.875-4.934 0-2.75-1.81-3.994-5.286-4.842Zm-38.258 3.007 2.819-6.578 2.845 6.578h-5.664Zm1.527-10.032-7.236 16.566h2.961l1.692-3.971h7.776l1.668 3.971h3.054l-7.236-16.566h-2.679Zm-18.375.117h-2.892v16.45h11.537v-2.634h-8.645V37.753Zm5.78-15.697L169.056 7.75h-4.713v23.235h5.045v-14.77l11.254 14.77h4.346V7.75h-5.045v14.307ZM79.339 21.39h5.908c2.622 0 3.784.963 3.784 2.525v.064c0 1.728-1.36 2.525-3.618 2.525H79.34V21.39Zm0-9.16h5.045c2.158 0 3.353.862 3.353 2.39v.066c0 1.725-1.427 2.458-3.684 2.458h-4.714v-4.915Zm14.77 12.382v-.067c0-3.12-1.657-4.682-4.348-5.708 1.66-.932 3.054-2.39 3.054-5.012v-.069c0-3.65-2.92-6.007-7.667-6.007H74.36v23.235h11.052c5.244 0 8.696-2.124 8.696-6.372Zm107.744 6.77c4.481 0 7.136-1.593 9.526-4.148l-3.253-3.286c-1.825 1.66-3.452 2.722-6.107 2.722-3.983 0-6.738-3.32-6.738-7.305v-.064c0-3.985 2.821-7.235 6.738-7.235 2.323 0 4.149.993 5.941 2.62l3.253-3.751c-2.158-2.124-4.78-3.585-9.161-3.585-7.136 0-12.117 5.41-12.117 12.015v.069c0 6.671 5.081 11.949 11.918 11.949Zm31.337-4.945h-12.615v-4.879h10.955v-4.55h-10.955v-4.712h12.449V7.749h-17.527v23.235h17.693v-4.547Zm-84.949-12.712 3.087 7.534h-6.174l3.087-7.534Zm-4.912 12.048h9.827l2.124 5.211h5.344l-9.958-23.401h-4.715l-9.957 23.401h5.211l2.124-5.21Zm-43.61 5.21h5.111V7.748h-5.111v23.233Zm16.987-14.768 11.253 14.77h4.348V7.748h-5.045v14.307L116.376 7.75h-4.715v23.235h5.045v-14.77Zm-69.453 14.77 6.775 6.775 6.776-6.776-6.776-6.775-6.775 6.775ZM7.574 24.208.801 30.984l6.773 6.776 6.776-6.776-6.776-6.775Zm23.227-9.676 11.615 11.612 6.773-6.775L37.577 7.757 30.8.985l-6.773 6.774L12.414 19.37l6.775 6.775L30.8 14.533Zm0 32.903L19.19 35.824l-6.775 6.773L24.028 54.21l6.773 6.773 6.776-6.773 11.612-11.614-6.773-6.773L30.8 47.436Zm-6.773-16.452 6.773 6.776 6.776-6.776L30.8 24.21l-6.773 6.775Z" clip-rule="evenodd"/></svg>
